X:1
T:Osculetur me osculo oris sui
T:Jacob Barbireau
T:Osculetur me osculo oris sui
C:Jacob Barbireau
%%score [ 1 [ 2 3 ] 4 ]
L:1/8
Q:1/4=120
M:3/2
K:C
V:1 treble nm="Soprano" snm="S"
V:2 treble-8 nm="Tenor 1" snm="T 1"
V:3 treble-8 nm="Tenor 2" snm="T 2"
V:4 bass nm="Bass" snm="B"
V:1
"^Cant. Cant. 1:1,2 2:1,2 6-9" E8- E3 F | G12 | F8 E4 | z4 E6 F2 | G6 FE D4 | C2 c3 B A4 GF | %6
w: O- * scu-|le-|* tur|me _|o- * * scu-|lo o- * * ris _|
 E3 F GABc B A2 G | A4 z2 A4 B2 | c4 c4 B2 A2 | c3 B G2 B2 A4 | G8 z4 | z4 A2 c3 B G2 | %12
w: su- * * * * * * * *|i, qui- a|me- li- o- *|* * * * ra-|sunt|u- * be- ra|
 A2 F3 E E4 D2 | E4 z4 E4 | G4 A4 A4 | D4 E6 DC | B,4 A,2 D4 C2 | D2 F3 EDC D4 | C12 | z4 G8 | %20
w: tu- a _ vi- *|no, fra-|gran- ti- a|un- * * *|guen- * * *|tis op- * * * ti-|mis.|O-|
 A4 A2 A4 c2- | c2 B2 A4 G4 | z2 G4 G2 G2 A2- | A2 A2 G2 E4 E2 | E2 E2 F2 F2 E2 C2- | %25
w: * le- um ef-|* * fu- sum|no- men tu- um|_ id- e- o ad-|o- le- sen- tu- lae di-|
 CDEF G2 A4 A,2 | C3 D E2 F2 E3 D/C/ | B,4 z4 z4 | z12 | E4 G4 A4 | G2 E2 F4 E2 E2 | %31
w: * * * * * * le-|xe- * * * * runt _|te.||E- * go|flos _ cam- pi et|
 E2 G3 A B2 c3 B | AG A4 G4 G2 | A3 B c8 | B4 z4 B4 | A2 A2 G2 G2 F2 E2 | G3 A B2 c2 A2 B2- | %37
w: li- * * * * li-|um _ _ _ con-|val- * li-|um. Sic-|ut li- li- um in- ter|spi- * * * * *|
 B2 A3 G G4 ^F2 | G2 G2 E2 E2 E2 E2 | D2 D2 G4 G2 G2 | F3 E F2 G2 AG c2 | B4 z2 B2 A2 G2 | %42
w: |nas, sic a- mi- ca me-|a in- ter fi- li-|as. _ _ _ _ _ _|_ Lae- va e-|
 A2 A2 G2 F2 E2 E2 | D4 z4 z4 | z12 | z12 | B8 c4- | c4 G8 | G6 A2 B4 | c4 c2 c2 c4 | %50
w: ius sub ca- pi- te me-|o,|||et dex-|* te-|ra il- li-|us am- ple- xa|
 B4 B3 A G3 F | E4 z2 G4 A2 | B3 A Bc B3 ABA | c2 B3 A A4 G2 | A2 c3 BAG A4 | ^G12- | G12 || %57
w: _ bi- * * *|tur, am- ple-|xa _ _ _ _ _ _ _|_ _ _ _ _|* * bi- tur _ _|me.|_|
[M:2/2] G8 | G4 A4- | A4 A4 | B4 B4 | c8 | c4 c4 | c6 B2 | G4 A4- | A4 G4 | F8 | E8- | E8 | %69
w: Ad-|iu- ro|_ vos,|fi- li-|ae|Je- ru-|sa- *|* lem,|_ _||||
 z4 E4- | E2 DC B,4 | A,4 D4- | D2 E2 F4 | E4 D4- | D4 G4 | F4 E4- | E2 D2 C4 | z2 E4 F2 | %78
w: per|_ _ _ _|ca- pre-|||||* * as|cer- *|
 G2 A2 B2 AB | c6 B2 | A2 GF E4- | E4 A4 | G4 F4- | F2 E2 E4- | E4 D4 | E8 | A4 A4- | A4 G4- | %88
w: ||||vos- *|||que|cam- po-||
 G2 F2 E2 DC | B,3 A, C3 D | EF G4 A2- | A2 GF E4 | z4 E4 | G6 A2 | B2 c4 BA | G8 | z4 G4 | G4 G4 | %98
w: |||* * * rum,|ne|su- sci-|te- * * *|tis,|ne-|que e-|
 A4 A4- | A4 A4 | A4 A4 | G4 G4 | A2 B4 c2 | A2 B4 E2 | F2 G4 A2 | B2 c4 B2- | BA A4 G2 | A8- | %108
w: * vi-|* gi-|la- re|fa- ci-|a- * *|* tis di-|lec- * *|||tam,|
 A6 G2 | F4 A4- | A2 GF E4 | z4 D4 | E4 E4- | E4 E4 | D4 D4 | C4 E4- | E2 DC B,4 | C4 B,4 | %118
w: _ di-|lec- *|* * * tam,|quo-|ad- us-|* que|ip- sa|ve- *||lit, _|
 z2 E4 D2 | E2 G4 A2- | A2 G6 | A2 B2 c4 | B4 z4 | G8- | G8 | c4 c4 | B4 c3 B | G4 G4 | A6 G2 | %129
w: ve- *||||lit.|Vox|_|* di-|lec- * *|* ti|me- *|
 F2 E2 D2 A2- | AGFE F4 | E8- | E8 | z8 | G4 F2 A2- | A2 B2 c4- | c2 BA G4 | G4 A4 | B4 G4- | %139
w: ||i,|_||ec- * *|* ce i-||ste _|ve- *|
 G2 F2 E4 | D8 | C4 z2 E2- | E2 F2 G4 | A4 A4 | G4 G4 | A4 B4 | c4 c4 | B4 B4 | A4 G4 | c4 B2 A2- | %150
w: ||nit sa-||* li-|ens in|mon- *|* ti-|bus, tran-|si- *||
 AGFE D4 | z2 A2 _B2 A2 | c4 B2 A2- | AG G4 ^F2 | G8 | z4 E4- | E2 E2 E4 | E8 | E4 E4 | F4 E2 F2- | %160
w: * * li- * ens|col- * *|||les.|Si-|* mi- lis|est|di- lec-|* tus me-|
 F2 E2 F4 | E4 z4 | E6 F2 | G6 F2 | E4 D4- | D4 A4- | A2 G2 F4- | F2 E2 D4- | D4 C4 | E6 F2 | %170
w: |us|ca- *||pre- ae|_ hin-|* nu- lo-||||
 G4 A4 | G2 E2 F2 G2 | E4 D4 | z4 D4 | C4 D4 | E4 z2 E2- | E2 A3 G F2- | F2 E4 D2 | E4 G4 | %179
w: ||* que|cer-|vo- *|rum, cer-|||vo- *|
 A4 B4- | B2 A2 c4 | z4 c4- | c4 B4 | A3 G A4 | G4 z2 G2 | A2 B2 c2 B2- | BA A4 ^G2 | A4 z2 A2- | %188
w: |* * rum.|En|_ _||* ip-||* * * se|stat post|
 A2 GF E4 | D4 D4 | G4 G4 | F4 A4- | A2 B2 c4- | c2 BA G4 | z4 G4 | A4 A4 | F4 G4 | E8 | E4 F4 | %199
w: _ _ _ _|pa- ri-|e- tem|no- *||* * * strum,|re-|spi- ci-|ens per|fe-|ne- *|
 G4 A4- | A4 D4 | E4 C4 | D8 | C8- | C8 |[M:3/4] A,2 B,2 C2 | D2 z2 D2 | E2 F2 G2 | z2 G2 A2 | %209
w: ||stras, _|_|||pro- spi- ci-|ens, pro-|spi- ci- ens|per _|
 B2 c2 z2 | c3 B A2- | AG FE DF | E3 F GF/G/ | A3 G FE/D/ | C2 z2 C2- | C2 D2 E2- | E2 A2 G2 | %217
w: _ _|can- * cel-||||los. A-|||
 A2 F3 E | E4 D2 | E6 | E6 | E6 |] %222
w: ||men,|a-|men.|
V:2
 E4- E3 F G4- | G3 A B4 c4 | A4 d3 c BA G2 | A2 c3 B A4 GF | E3 F GABc B A2 G | A8 c4- | c4 B8 | %7
w: O- * scu- le-|* tur me _|_ o- * * * scu-|lo o- * * ris _|su- * * * * * * * *|||
 A8 z4 | A2 c3 B A2 e4 | z2 c4 B2 c2 d2- | d2 e3 d B2 A2 c2- | cB G2 z2 A2 c3 B | AG A3 G E2 F4 | %13
w: i,|qui- * * * a|me- li- o- *|* * * * ra- sunt|_ _ _ u- * be-|ra _ _ _ _ tu-|
 E2 A4 G2 A2 c2 | B4 A3 B c2 d2- | dcBA B4 E4 | D4 z2 A6 | G2 F2 _B2 A4 G2 | A2 c3 BAG A4 | %19
w: a vi- * * *|no, fra- * * gran-|* * * * ti- *|a un-|guen- * * * *|tis op- * * * ti-|
 G2 c6 B4 | A2 c3 d e3 fed | c2 e4 d2 e4 | d2 e3 d/c/ B2 c3 B | AG A2 z2 G2 c3 B | G2 A4 B2 c3 B | %25
w: mis. O- *||* * le- um|ef- fu- * * sum no- *|men _ _ tu- * *|um id- * * e-|
 A2 G4 F2 A3 G | E2 G4 F2 G4 | z2 G2 E2 A3 G B2- | BA c3 B A4 ^G2 | A2 c4 B2 c4 | z12 | %31
w: o ad- o- * le-|sen- * tu- lae|di- le- xe- * *|* * * * * runt|te. _ _ _||
 e3 d/c/ B4 A4- | A4 c6 B2 | A12 | G4 A4 B2 d2- | d2 c2 B2 c2 A2 G2- | GF E2- EF G2 A2 G2 | %37
w: E- * * * go|_ flos _|cam-|pi et li- *|* li- um con- val- *||
 d3 c d2 B2 A4 | G4 z4 z4 | z12 | z12 | G2 B2- Bc d2- dc e2- | ed f2 ed d4 c2 | d4 z2 B2 c2 d2- | %44
w: * * * * li-|um.|||sic a- * * mi- * * *|* * * ca _ me- *|a in- ter fi-|
 d4 B4 c2 d2 | e3 d cB e4 d2 | e4 z4 E4- | E2 F2 G8 | G8 G4 | E2 A2- AGFE F4 | G6 FE D2 G2 | %51
w: |* * * * * li-|as. et|_ _ dex-|te- ra|il- li- * * * * *||
 CDEF G2 C2 z4 | z12 | e2 d2 c2 f2 d2 e2 | c3 B cd e4 d2 | e12- | e12 ||[M:2/2] e8 | e4 c4 | %59
w: * * * * * us||am- ple- xa _ _ _|_ _ _ _ bi- tur|me.|_|Ad-|iu- ro|
 d4 A4- | A2 GF G4 | A6 G2 | E4 A4- | A2 G2 A2 B2 | c6 d2- | d4 e4 | A6 B2 | c4 B2 c2- | %68
w: vos, _|_ _ _ _|fi- *||* li- ae Je-|ru- *||||
 c2 B2 G2 A2 | E3 F G2 A2 | E2 A4 G2 | A4 z4 | A6 B2 | c4 d4 | B8 | z4 c4- | c2 d2 e4 | c4 c4 | %78
w: ||* * sa-|lem,|per _|_ _||ca-|* * pre-|as cer-|
 B4 e4- | e2 d2 c4 | d4 B4 | c4 A4 | z4 A4 | c6 B2 | A2 G2 A4- | A8- | A4 c4- | c2 d2 e4- | %88
w: vos- *|||que _|cam-|po- *|||||
 e2 d2 c2 BA | G2 A4 GF | E6 D2 | F3 G AB c2- | c2 BA G4 | c4 B2 A2 | z2 A2 c2 d2 | e4 e4 | z4 e4 | %97
w: |||||* rum, _|ne su- sci-|te- tis,|ne-|
 e4 e4 | c4 d4 | c4 d4- | d4 A4 | B4 c3 B | A2 G2 B2 A2 | d4 G4 | A2 B2 c3 d | B2 A2 e3 d | %106
w: que e-|vi- gi-|la- *|* re|_ fa- ci-|a- * * *||tis di- lec- *||
 e2 A2 B4 | A4 d4- | d2 c2 A4- | A2 B2 c4- | c2 BA G2 A2- | A2 ^G^F G4 | A4 z4 | A3 G c4- | %114
w: ||||||tam,|di- * lec-|
 c2 BA B4 | c4 G4 | A4 G4 | z4 G4 | E4 F4 | E4 B2 c2 | d2 B2 c3 B | A2 G2 z2 c2 | d2 e4 d2 | %123
w: ||* tam,|quo-|* ad-|us- * *||que _ ip-|sa ve- *|
 c2 BA B4- | B2 AG G4 | z4 e4 | d4 e4- | e2 d2 c2 B2 | A4 A4 | A4 z4 | A4 B4 | c8 | B4 G4- | %133
w: |* * * lit,|Vox|di- *||* lec-|ti|me- *|||
 G4 A4 | E4 F4 | G4 A4 | z8 | z8 | E6 F2 | G4 G4 | G4 G4 | A4 c4 | B4 e4- | e4 d4 | e4 e4 | d6 cB | %146
w: ||i, _|||ec- ce|i- ste|ve- nit|sa- *||* li-|ens in|mon- * *|
 A4 c4 | d4 e4 | f4 z2 e2- | e2 c2 d4 | z2 A2 _B4 | z2 F2 G2 A2- | ABcB d3 c | BA G2 A4 | G4 z4 | %155
w: * ti-|* bus,|_ mon-|* ti- bus,|tran- si-||* * * * * li-|ens _ _ col-|les.|
 G8 | G6 G2 | A4 G4 | c4 c4 | d4 A4 | z8 | c6 d2 | e2 c4 BA | B4 z4 | c4 d4 | A8 | z4 A4 | d6 e2 | %168
w: Si-|mi- lis|est di-|lec- tus|me- us||ca- *|* * pre- *|ae|ca- pre-|ae|hin-|nu- *|
 f6 ed | c4 B4 | z2 e4 d2 | e2 c2 d2 B2 | c4 B4 | z2 A4 G2 | A4 F2 G2- | G2 E2 F2 G2 | E2 D2 A3 G | %177
w: lo- * *|que _|hin- nu-|lo- * * *|que _|cer- *|vo- * *|||
 A2 E2 F4 | E8 | z4 e4 | d4 c4- | c2 B2 A2 G2 | A2 c2 d2 e2 | f2 e4 d2 | e4 e3 d | c2 B2 A2 G2 | %186
w: |rum,|En|ip- *||||se stat _|_ _ _ _|
 A2 c2 B4 | A6 GF | E4 A4 | z4 G4- | G2 F2 G4 | A8 | A4 A4 | G6 A2 | B4 B4 | A4 d4- | d2 c2 e4- | %197
w: |||post|_ _ pa-|ri-|e- tem|no- *|strum, re-|spi- *||
 e2 d2 c2 B2 | A2 G2 A4 | B4 A4- | A2 G2 F4 | z8 | D8 | E4 C4- | C2 D2 E4 |[M:3/4] F2 G2 A2 | %206
w: |||* ci- ens||per|_ fe-||ne- * stras,|
 z2 A2 B2 | c2 d2 z2 | d2 e2 f2 | d2 c2 d2 | A2 z2 A2- | A2 A2 B2 | c4 B2 | A2 FG A2 | E6 | z6 | %216
w: pro- spi-|ci- ens,|per _ _|_ _ _|* can-|* cel- *|||los.||
 e2 f2 e2 | c2 d4 | c2 A4 | A2 B2 c2 | B6- | B6 |] %222
w: A- * *||* men,|a- * *|men.|_|
V:3
 z12 | z12 | z12 | z12 | z12 | z12 | z12 | z12 | z12 | z12 | z12 | z12 | z12 | E12- | E4 F8 | G12 | %16
w: |||||||||||||O-|||
 G4 F4 E4 | D12 | E12 | E12- | E12 | z12 | z12 | z12 | z12 | z12 | z12 | z12 | z12 | E12 | G4 A8 | %31
w: scu- * le-|tur|_|me|_|||||||||E-|go _|
 G8 F4- | F4 E8 | E12- | E8 z4 | z12 | z12 | z12 | E6 G4 A2- | A2 B4 c4 B2- | B2 A4 G4 ^F2 | %41
w: flos _|_ cam-|pi|_||||et li- li-|* um _ con-|* val- * li-|
 G8 z4 | z12 | z2 D4 E4 F2 | G2 D4 E4 F2 | G2 A4 G2 F4 | E8 z4 | c12 | B12 | A12 | B8 z4 | c12 | %52
w: um.||sic _ a-|mi- * * ca|me- * * *|a|in-|||ter|fi-|
 d12 | c2 d2 G2 A2 B4 | A12 | B12 | B12 ||[M:2/2] z8 | z8 | z8 | z8 | z8 | z8 | z8 | z8 | z8 | z8 | %67
w: ||li-||as.|||||||||||
 z8 | z8 | z8 | z8 | D8- | D8 | G8- | G8 | A8- | A8 | G8- | G8 | z4 A4- | A4 G4 | A6 G2 | E4 D4 | %83
w: ||||Ad-||iu-||ro|_|vos,|_|fi-|* li-|ae Je-|ru- *|
 E8 | F8 | E8- | E8- | E8- | E8 | z8 | z8 | z8 | z8 | z8 | z8 | z8 | z8 | z8 | z8 | z8 | z8 | z8 | %102
w: sa-||lem,|_||||||||||||||||
 z8 | z8 | z8 | z8 | z8 | F8- | F8 | F6 E2 | C4 E4 | D8 | C8- | C8 | D8 | E8 | E8- | E8 | z8 | z8 | %120
w: |||||quo-||ad- *|us- que|ip-|sa|_|ve-||lit,|_|||
 z8 | z8 | z8 | z8 | z8 | G8- | G8- | G8 | D8- | D8- | D8 | z4 G4- | G4 B4- | B4 c4- | c4 d4- | %135
w: |||||Vox|_|||||di-|* lec-|||
 d4 c4 | A4 B4 | c8 | B8- | B8- | B8 | z8 | z8 | z8 | z8 | z8 | z8 | z8 | z8 | z8 | z8 | z8 | z8 | %153
w: * ti|me- *||i,|_||||||||||||||
 z8 | z8 | c8- | c8- | c8- | c8 | A8- | A8- | A8- | A8 | G8- | G8 | F8- | F8 | z8 | z8 | z8 | z8 | %171
w: ||Si-||||mi-||||lis|_|est|_|||||
 z8 | z8 | z8 | z8 | z8 | z8 | z8 | z8 | z8 | z8 | z8 | z8 | z8 | z8 | z8 | z8 | z8 | z8 | D8- | %190
w: ||||||||||||||||||En|
 D8 | F8- | F8 | E8- | E8 | F6 G2 | A4 B4- | B4 c4- | c4 d4- | d4 c4 | A4 B4 | c4 A4- | A4 G4 | %203
w: _|ip-||||se _|_ stat|_ _||* post|pa- *|ri- *|* e-|
 A8- | A8 |[M:3/4] D4 E2 | D2 E2 F2 | E2 A2 G2 | A2 E2 z2 | z2 z2 G2 | A2 c3 B | A3 G F2 | G6 | %213
w: tem|_|* pro-|spi- * ci-|ens, per can-|cel- los.|per|can- * *|cel- * *||
 E2 z2 D2 | A6 | G2 A2 B2 | c2 d2 cB | A4 A2 | G2 F4 | E6- | E6- | E6 |] %222
w: los. A-||||men, a-||men.|_||
V:4
 z4 z4 E,4- | E,3 F, G,4 C,4 | D,8 E,4 | A,,8 C,4- | C,4 B,,8 | A,,12 | E,12 | F,8 D,4 | %8
w: O-|* scu- le- *|* tur|me _|_ _||||
 z2 C,2 E,2 F,2 G,2 A,2 | F,4 E,4 z4 | G,8 F,4 | E,4 F,3 E, C,D, E,2 | A,,2 D,4 C,2 D,4 | %13
w: o- scu- lo o- ris|su- i,|qui- a|me- * * * * *|li- o- * ra-|
 A,,4 C,6 B,,A,, | G,,4 F,,8 | z4 E,,6 F,,2 | G,,4 z4 A,,4 | _B,,2 D,3 C,B,,A,, B,,4 | A,,12 | %19
w: sunt u- * *|be- ra|tu- *|a vi-||no,|
 C,8 z4 | A,,12 | E,4 F,4 E,3 D,/C,/ | B,,2 C,3 B,,/A,,/ G,,2 C,4 | D,4 E,3 C, C,4 | z4 D,4 E,4 | %25
w: _|id-|e- * o _ _|_ ad- * * * o-|le- sen- tu- lae|di- *|
 F,2 E,4 D,2 F,3 E, | C,4 z2 D,2 E,3 F, | G,2 G,,2 A,,3 B,, C,2 D,2 | D,2 E,2 A,,2 C,2 B,,4 | %29
w: le- xe- runt te. _|_ id- * e-|o ad- o- le- sen- tu-|lae di- le- xe- runt|
 A,,4 z4 A,,4 | B,,2 C,2 F,,3 G,, A,,4 | z12 | D,2 A,,4 C,3 D, E,2 | A,,12 | z4 A,,4 G,,2 G,,2 | %35
w: te. id-|* * * e- o||id- * * * e-|o|ad- o- le-|
 F,,2 F,,2 G,,2 C,2 D,2 E,2- | E,F, G,4 C,2 F,2 E,2 | D,3 E, F,2 G,2 D,4 | z4 C,8 | D,4 E,8 | %40
w: sen- tu- lae di- le- xe-||* * * runt te.|E-|go flos|
 D,3 C, D,2 B,,2 A,,4 | G,,8 z4 | A,,2 D,2 E,2 F,2 G,2 A,2 | D,4 z4 z4 | z12 | z12 | E,8 C,4- | %47
w: cam- * * * *|pi|sic a- mi- ca me- *|a|||in- *|
 C,12 | E,12 | A,,12 | G,,12 | A,,2 C,3 D, E,4 F,2 | D,2 G,F, G,A, G,3 F,G,F, | z12 | %54
w: |ter|_||fi- * * * *|||
 F,2 A,3 G,F,E, F,4 | E,12- | E,12 ||[M:2/2] E,8 | E,4 F,4 | D,6 C,2 | B,,8 | A,,6 B,,2 | %62
w: * * * * * li-|as.|_|Ad-|iu- *|ro _|_|vos, _|
 C,4 A,,4- | A,,8 | E,4 F,4 | D,4 z4 | D,8 | A,4 G,2 A,2 | E,6 C,2- | C,2 D,2 E,2 A,,2 | %70
w: _ fi-||li- *|ae|Je-|ru- * *||* * sa- lem,|
 z2 A,,2 E,4 | F,8- | F,6 E,D, | C,4 B,,4- | B,,2 A,,2 G,,4 | D,4 C,4 | A,,8 | C,6 D,2 | E,8- | %79
w: per _|_||||||ca- *|pre-|
 E,4 F,4- | F,2 D,2 E,4 | C,4 D,4 | z4 D,4- | D,2 C,B,, C,4 | D,8 | A,,8 | A,,8 | C,4 C,4 | C,8 | %89
w: ||as _|cer-|||vos-|que|cam- po-|rum,|
 z4 A,,4 | C,3 D, E,2 F,2 | D,4 C,4- | C,2 D,2 E,4- | E,2 F,2 G,3 F, | G,2 A,4 G,F, | E,4 E,4 | %96
w: ne|su- * * *||* sci- te-|||* tis,|
 z4 E,4 | E,4 E,4 | F,8 | F,6 E,2 | D,4 F,4 | E,4 z2 E,2 | F,2 E,2 G,2 F,2- | F,2 D,2 E,4 | %104
w: ne-|que e-|vi-|gi- *|la- re|_ fa-|ci- * a- *|* * tis|
 z2 E,4 F,2 | G,2 A,4 G,2- | G,2 F,2 E,4 | z4 D,4- | D,8- | D,2 C,B,, A,,4- | A,,2 B,,2 C,2 A,,2 | %111
w: di- *|lec- * *|* * tam,|quo-||||
 B,,4 B,,4 | A,,8- | A,,8 | z4 G,,4 | C,4 C,4 | C,4 E,4- | E,2 F,2 G,4- | G,4 A,4 | G,6 F,2- | %120
w: ad- us-|que|_|ip-|* sa|ve- *||||
 F,2 G,2 E,4 | F,2 E,2 A,4 | G,4 F,4 | E,8- | E,6 D,C, | C,8 | z4 C,4 | C,4 C,4 | F,6 E,2 | %129
w: |||||lit,|Vox|di- lec-||
 D,2 C,2 B,,2 F,2- | F,E,D,C, D,4 | C,6 D,2 | E,6 D,C, | B,,4 A,,4 | z8 | z8 | z4 E,4- | E,4 F,4 | %138
w: * * ti me-||||i, _|||ec-|* ce|
 G,4 E,4- | E,2 D,2 E,3 D, | B,,4 B,,4 | A,,8 | E,8 | F,8 | E,8 | z4 G,4 | F,4 A,4 | G,8 | z4 G,4 | %149
w: i- *||* ste|ve-|||nit|sa-|li- *|ens|in|
 A,4 D,4 | F,4 G,4 | D,4 z2 F,2- | F,2 E,2 D,2 F,2 | G,2 E,2 D,4 | G,,8 | C,6 C,2 | C,4 C,4- | %157
w: mon- *|ti- *|bus, tran-|* * si- *|li- ens col-|les.|Si- mi-|lis est|
 C,2 D,2 E,4 | A,,4 A,,4 | D,4 C,2 D,2- | D,2 C,2 D,4 | A,,4 z4 | A,,8 | E,6 D,2 | C,4 B,,4 | %165
w: _ di- lec-|tus me-|||us|ca-||pre- *|
 D,8- | D,8 | z4 D,4- | D,4 A,4- | A,4 G,4- | G,4 F,4 | E,4 D,2 E,2- | E,2 C,2 D,2 B,,2 | %173
w: ae|_|hin-|||* nu-|lo- * *||
 C,4 B,,4 | A,,4 z4 | z8 | z8 | z8 | E,8 | F,4 E,4 | G,4 A,4- | A,2 G,2 F,2 E,2 | F,2 E,2 G,4 | %183
w: |que||||En|ip- *||* * * se|stat _ _|
 A,2 E,2 F,4 | E,2 D,2 C,2 B,,2 | A,,2 G,,2 A,,2 B,,2 | C,2 A,,2 E,4 | A,,8- | A,,8 | B,,6 G,,2 | %190
w: _ _ _||||post|_|* pa-|
 G,,8 | D,8- | D,4 A,,4 | C,6 B,,A,, | G,,4 G,,4 | D,6 E,2 | F,4 E,4 | G,4 A,4- | A,4 D,4 | %199
w: ri-|||* e- *|tem no-|strum, re-|spi- *|ci- ens|_ per|
 B,,4 C,4 | D,6 C,B,, | A,,4 C,4 | B,,8 | A,,8- | A,,8 |[M:3/4] z2 z2 A,,2 | B,,2 C,2 D,2 | %207
w: fe- *|ne- * *|||stras,|_|pro-|spi- ci- ens,|
 z2 D,2 E,2 | F,2 G,2 z2 | G,2 A,2 B,2 | C2 A,3 G, | F,E, D,4 | C,3 D, E,2 | A,,4 z2 | A,,4 A,,2 | %215
w: pro- spi-|ci- ens|per can- *|* cel- *|||los.|A- men,|
 E,2 F,2 G,2 | A,2 D,2 E,2 | F,3 D, F,2 | C,2 D,4 | A,,2 G,,2 A,,2 | E,6- | E,6 |] %222
w: a- * *|||||men.|_|

